assets/icons/folder/filled.svg

<?xml version="1.0" encoding="UTF-8" standalone="no"?>
<svg
   viewBox="0 0 24 24"
   height="24"
   width="24"
   version="1.1"
   id="svg4"
   sodipodi:docname="filled.svg"
   inkscape:version="1.2 (1:1.2.1+202207142221+cd75a1ee6d)"
   xmlns:inkscape="http://www.inkscape.org/namespaces/inkscape"
   xmlns:sodipodi="http://sodipodi.sourceforge.net/DTD/sodipodi-0.dtd"
   xmlns="http://www.w3.org/2000/svg"
   xmlns:svg="http://www.w3.org/2000/svg">
  <defs
     id="defs8" />
  <sodipodi:namedview
     id="namedview6"
     pagecolor="#ffffff"
     bordercolor="#666666"
     borderopacity="1.0"
     inkscape:pageshadow="2"
     inkscape:pageopacity="0.0"
     inkscape:pagecheckerboard="0"
     showgrid="true"
     inkscape:zoom="14"
     inkscape:cx="5.6428571"
     inkscape:cy="15.821429"
     inkscape:window-width="1920"
     inkscape:window-height="1016"
     inkscape:window-x="0"
     inkscape:window-y="0"
     inkscape:window-maximized="1"
     inkscape:current-layer="svg4"
     inkscape:showpageshadow="2"
     inkscape:deskcolor="#d1d1d1">
    <inkscape:grid
       type="xygrid"
       id="grid821" />
    <inkscape:grid
       type="xygrid"
       id="grid823"
       dotted="true"
       spacingx="0.5"
       spacingy="0.5"
       empspacing="10" />
  </sodipodi:namedview>
  <path
     id="path454"
     style="color:#000000;fill:#808080;stroke-linecap:round;-inkscape-stroke:none;fill-opacity:1"
     d="M 5.4550781 3 C 4.4864992 3.00898 3.7372579 3.0732698 3.1171875 3.4453125 C 2.7038072 3.6933408 2.3972494 4.101221 2.2285156 4.6074219 C 2.0597821 5.1136228 2 5.7222246 2 6.5 L 2 9.8925781 C 2.1634827 9.7613135 2.3396793 9.6465666 2.5273438 9.5527344 C 3.3965989 9.1181067 4.4583354 9 5.5 9 L 10.292969 9 L 13.5 5.7929688 L 10.853516 3.1464844 A 0.5 0.5 0 0 0 10.761719 3.0761719 A 0.5 0.5 0 0 0 10.730469 3.0585938 A 0.5 0.5 0 0 0 10.640625 3.0214844 A 0.5 0.5 0 0 0 10.621094 3.015625 A 0.5 0.5 0 0 0 10.5 3 L 6.5 3 C 6.1250012 3 5.7779378 2.99701 5.4550781 3 z M 14.707031 6 L 10.707031 10 L 5.5 10 C 4.5416686 10 3.603398 10.131894 2.9726562 10.447266 C 2.3419144 10.762636 2 11.166668 2 12 L 2 12.501953 L 2 17.5 C 2 18.277775 2.0585584 18.891311 2.25 19.408203 C 2.4414417 19.925097 2.8029642 20.335075 3.2773438 20.572266 C 4.2261023 21.046644 5.500006 21 7.5 21 L 17.5 21 C 18.999996 21 20.056052 21.050738 20.882812 20.554688 C 21.296194 20.306659 21.602752 19.89878 21.771484 19.392578 C 21.940218 18.886378 22 18.277775 22 17.5 L 22 9.5 C 22 8.7222246 21.94022 8.1136228 21.771484 7.6074219 C 21.602752 7.101221 21.296194 6.6933408 20.882812 6.4453125 C 20.056053 5.9492562 18.999996 6 17.5 6 L 14.707031 6 z " />
</svg>

<svg height="24" width="24" xmlns="http://www.w3.org/2000/svg"><path style="color:#000;fill:gray;stroke-linecap:round;-inkscape-stroke:none;fill-opacity:1" d="M5.455 3c-.969.009-1.718.073-2.338.445-.413.248-.72.656-.888 1.162C2.059 5.114 2 5.722 2 6.5v3.393c.163-.132.34-.246.527-.34C3.397 9.118 4.458 9 5.5 9h4.793L13.5 5.793l-2.646-2.647a.5.5 0 0 0-.092-.07.5.5 0 0 0-.032-.017.5.5 0 0 0-.09-.038.5.5 0 0 0-.019-.005A.5.5 0 0 0 10.5 3h-4c-.375 0-.722-.003-1.045 0zm9.252 3-4 4H5.5c-.958 0-1.897.132-2.527.447C2.342 10.763 2 11.167 2 12v5.5c0 .778.059 1.391.25 1.908.191.517.553.927 1.027 1.164.95.475 2.223.428 4.223.428h10c1.5 0 2.556.05 3.383-.445.413-.248.72-.656.888-1.162.17-.507.229-1.115.229-1.893v-8c0-.778-.06-1.386-.229-1.893-.168-.506-.475-.914-.888-1.162C20.056 5.95 19 6 17.5 6h-2.793z"/></svg>
